!!!OTL@@FUR: Jo soi stade a confess&acirc;mi
!!!OTL@IT: Sono stat a confessarmi
!!!OTL@EN: I have gone to confession
**kern
*clefG2
*k[]
*C:
*M6/8
*MM70
*>[A,A]
*>A
8g
8g
=1
4ee
8cc
8g
8a
8b
=2
4.a
8g
8e
8g
=3
4ee
8ee
4ee
8ee
=4
4.ff
8r
8g
8g
=5
4ff
8ee
4dd
8cc
=6
4.b
8a
8f
8f
=7
4a
8b
4cc
8b
=8
4a
8g
4cc
8r
=9
8g
8e
8g
4cc
8dd
=10
4cc
8b
4dd
8r
=11
8g
8g
8g
4gg
8ff
=12
8ee
16ee
16dd
16cc
16dd
8ee
8ee
8ee
=13
4a
8gg
8gg
8ee
8dd
=14
4gg
8ee
4cc
8ee
=15
16ff
16ee
16dd
16cc
16b
16a
16g
16g
8a
8b
=16
[4cc.
8cc]
==:|!
*-
!!!ARE: Friuli
!!!ENC: Kelly Leistikow
!!!END: 2002/03/07
!!!ref: @{OTL@@FUR}/@{OTL@EN}
